!!!OTL: Chang tiaotang
!!!ARE: Asia, China,ÿAnhui Nanling
!! III, 538
!!!SCT: C2040
!!!YEM: Copyright 1995, estate of Helmut Schaffrath.
**kern
*ICvox
*Ivox
*M2/4
*k[f#c#]
*D:
{8dd
8ee
8ee
16dd
16b
=1
4a
4a
=2
8dd
8ee
8dd
8b
=3
4a
4a}
=4
{8.a
16b
4dd
=5
8b
8dd
8a
8f#
=6
8.f#
16b
8a
8f#
=7
4e
8d
8B}
=8
{8d
8B
8d
8e
=9
8a
8b
4a
=10
8dd
8b
8dd
8f#
=11
8a
8b
4a}
=12
{8.a
16b
4dd
=13
8.b
16dd
8a
8f#
=14
8f#
8b
8a
8f#
=15
2e}
==
!!!AGN: Xiaodiao
!!!AMT: simple duple
!!!AIN: vox
!!!EED: Helmut Schaffrath
!!!EEV: 1.0
*-
